images/4_3.svg

<svg xmlns="http://www.w3.org/2000/svg" width="361.5" height="359.469" viewBox="0 0 361.5 359.469"><style>text, tspan { font-family: &apos;Lato&apos;; } .heavy { font-weight: 700; }</style><path stroke="#CDCCCC" stroke-width=".75" stroke-miterlimit="10" d="M24.928 293.44h335.248M24.928 252.665h335.248m-335.248-40.65h335.248M24.928 171.238h335.248M24.928 130.46h335.248M24.928 89.813h335.248M24.928 49.035h335.248M24.928 8.258h335.248" fill="none"/><path fill="#06A0B0" d="M33.404 45.752h17.15v288.34h-17.15V45.752zm55.942 34.34h17.05v254h-17.05v-254zm55.84 1.01h17.053v252.99h-17.053V81.103zm55.842 10.477h17.15v242.513h-17.15V91.58zm55.942.504h17.05v242.01h-17.05V92.083zm55.84 20.83h17.054v221.18H312.81v-221.18z"/><path clip-rule="evenodd" fill="none" d="M24.83 334.85h335.846V8.26H24.83V334.85z"/><path fill="#CC3440" d="M55.143 97.26h17.05V334.09h-17.05V97.26zm55.84 67.16h17.152v169.672h-17.15v-169.67zm55.943-26.89h17.05v196.563h-17.05V137.53zm55.84-27.772h17.052v224.334h-17.05V109.758zm55.84 53.275h17.152v171.06h-17.15v-171.06zm55.943 19.694H351.6v151.366H334.55V182.727z"/><path clip-rule="evenodd" fill="none" d="M24.83 334.85h335.846V8.26H24.83V334.85z"/><path stroke="#9B9B9B" stroke-linejoin="round" stroke-miterlimit="10" fill="none" d="M24.928 334.093h335.248"/><text transform="translate(6.358 333.473)" fill="#4E4E4E" font-size="10">0</text><text transform="translate(6.358 292.739)" fill="#4E4E4E" font-size="10">5</text><text transform="translate(.619 251.998)"><tspan x="0" y="0" fill="#4E4E4E" font-size="10">10</tspan></text><text transform="translate(.619 211.273)"><tspan x="0" y="0" fill="#4E4E4E" font-size="10">15</tspan></text><text transform="translate(.619 170.548)"><tspan x="0" y="0" fill="#4E4E4E" font-size="10">20</tspan></text><text transform="translate(.619 129.815)"><tspan x="0" y="0" fill="#4E4E4E" font-size="10">25</tspan></text><text transform="translate(.619 89.081)"><tspan x="0" y="0" fill="#4E4E4E" font-size="10">30</tspan></text><text transform="translate(.619 48.356)"><tspan x="0" y="0" fill="#4E4E4E" font-size="10">35</tspan></text><text transform="translate(.619 7.632)"><tspan x="0" y="0" fill="#4E4E4E" font-size="10">40%</tspan></text><text transform="translate(38.063 346.965)"><tspan x="0" y="0" fill="#4E4E4E" font-size="10">Africa</tspan></text><text transform="translate(100.582 346.965)"><tspan x="0" y="0" fill="#4E4E4E" font-size="10">Asia</tspan></text><text transform="translate(151.03 346.965)"><tspan x="0" y="0" fill="#4E4E4E" font-size="10">North</tspan><tspan x="-3.685" y="12" fill="#4E4E4E" font-size="10">America</tspan></text><text transform="translate(207.142 346.965)"><tspan x="0" y="0" fill="#4E4E4E" font-size="10">South</tspan><tspan x="-3.823" y="12" fill="#4E4E4E" font-size="10">America</tspan></text><text transform="translate(252.855 346.965)"><tspan x="0" y="0" fill="#4E4E4E" font-size="10">Oceania</tspan></text><text transform="translate(312.628 346.965)"><tspan x="0" y="0" fill="#4E4E4E" font-size="10">Europe</tspan></text><text transform="translate(309.799 25.798)"><tspan x="0" y="0" fill="#06A0B0" class="heavy" font-size="14">2004</tspan></text><text transform="translate(309.799 44.115)"><tspan x="0" y="0" fill="#CC3440" class="heavy" font-size="14">2014</tspan></text></svg>

<?xml version="1.0" encoding="utf-8"?>
<!-- Generator: Adobe Illustrator 16.0.4, SVG Export Plug-In . SVG Version: 6.00 Build 0)  -->
<!DOCTYPE svg PUBLIC "-//W3C//DTD SVG 1.1//EN" "http://www.w3.org/Graphics/SVG/1.1/DTD/svg11.dtd">
<svg version="1.1" id="Layer_1" xmlns="http://www.w3.org/2000/svg" xmlns:xlink="http://www.w3.org/1999/xlink" x="0px" y="0px"
	 width="361.5px" height="359.469px" viewBox="0 0 361.5 359.469" enable-background="new 0 0 361.5 359.469" xml:space="preserve"><style>text, tspan { font-family: &apos;Lato&apos;; } .heavy { font-weight: 700; }</style>
<path fill="none" stroke="#CDCCCC" stroke-width="0.75" stroke-miterlimit="10" d="M24.928,293.441h335.248 M24.928,252.664h335.248
	 M24.928,212.014h335.248 M24.928,171.238h335.248 M24.928,130.461h335.248 M24.928,89.812h335.248 M24.928,49.035h335.248
	 M24.928,8.258h335.248"/>
<path fill="#06A0B0" d="M33.404,45.752h17.151v288.34H33.404V45.752L33.404,45.752z M89.346,80.091h17.051v254.002H89.346V80.091
	L89.346,80.091z M145.187,81.101h17.052v252.992h-17.052V81.101L145.187,81.101z M201.028,91.579h17.151v242.514h-17.151V91.579
	L201.028,91.579z M256.97,92.084h17.051v242.009H256.97V92.084L256.97,92.084z M312.811,112.914h17.053v221.179h-17.053V112.914
	L312.811,112.914z"/>
<polygon fill-rule="evenodd" clip-rule="evenodd" fill="none" points="24.829,334.851 360.676,334.851 360.676,8.258 24.829,8.258 
	24.829,334.851 "/>
<path fill="#CC3440" d="M55.143,97.259h17.051v236.833H55.143V97.259L55.143,97.259z M110.984,164.421h17.151v169.671h-17.151
	V164.421L110.984,164.421z M166.926,137.531h17.051v196.562h-17.051V137.531L166.926,137.531z M222.767,109.758h17.051v224.334
	h-17.051V109.758L222.767,109.758z M278.607,163.033h17.151v171.06h-17.151V163.033L278.607,163.033z M334.549,182.727h17.053
	v151.366h-17.053V182.727L334.549,182.727z"/>
<polygon fill-rule="evenodd" clip-rule="evenodd" fill="none" points="24.829,334.851 360.676,334.851 360.676,8.258 24.829,8.258 
	24.829,334.851 "/>
<line fill="none" stroke="#9B9B9B" stroke-linejoin="round" stroke-miterlimit="10" x1="24.928" y1="334.093" x2="360.176" y2="334.093"/>
<g>
	<text transform="matrix(1 0 0 1 6.3584 333.4727)" fill="#4E4E4E" font-size="10">0</text>
</g>
<g>
	<text transform="matrix(1 0 0 1 6.3584 292.7393)" fill="#4E4E4E" font-size="10">5</text>
</g>
<g>
	<text transform="matrix(1 0 0 1 0.6187 251.998)"><tspan x="0" y="0" fill="#4E4E4E" font-size="10">10</tspan></text>
</g>
<g>
	<text transform="matrix(1 0 0 1 0.6187 211.2725)"><tspan x="0" y="0" fill="#4E4E4E" font-size="10">15</tspan></text>
</g>
<g>
	<text transform="matrix(1 0 0 1 0.6187 170.5479)"><tspan x="0" y="0" fill="#4E4E4E" font-size="10">20</tspan></text>
</g>
<g>
	<text transform="matrix(1 0 0 1 0.6187 129.8145)"><tspan x="0" y="0" fill="#4E4E4E" font-size="10">25</tspan></text>
</g>
<g>
	<text transform="matrix(1 0 0 1 0.6187 89.0811)"><tspan x="0" y="0" fill="#4E4E4E" font-size="10">30</tspan></text>
</g>
<g>
	<text transform="matrix(1 0 0 1 0.6187 48.3564)"><tspan x="0" y="0" fill="#4E4E4E" font-size="10">35</tspan></text>
</g>
<g>
	<text transform="matrix(1 0 0 1 0.6187 7.6318)"><tspan x="0" y="0" fill="#4E4E4E" font-size="10">40%</tspan></text>
</g>
<g>
	<text transform="matrix(1 0 0 1 38.063 346.9648)"><tspan x="0" y="0" fill="#4E4E4E" font-size="10">Africa</tspan></text>
</g>
<g>
	<text transform="matrix(1 0 0 1 100.5815 346.9648)"><tspan x="0" y="0" fill="#4E4E4E" font-size="10">Asia</tspan></text>
</g>
<g>
	<text transform="matrix(1 0 0 1 151.0303 346.9648)"><tspan x="0" y="0" fill="#4E4E4E" font-size="10">North</tspan><tspan x="-3.685" y="12" fill="#4E4E4E" font-size="10">America</tspan></text>
</g>
<g>
	<text transform="matrix(1 0 0 1 207.1416 346.9648)"><tspan x="0" y="0" fill="#4E4E4E" font-size="10">South</tspan><tspan x="-3.823" y="12" fill="#4E4E4E" font-size="10">America</tspan></text>
</g>
<g>
	<text transform="matrix(1 0 0 1 252.8545 346.9648)"><tspan x="0" y="0" fill="#4E4E4E" font-size="10">Oceania</tspan></text>
</g>
<g>
	<text transform="matrix(1 0 0 1 312.6279 346.9648)"><tspan x="0" y="0" fill="#4E4E4E" font-size="10">Europe</tspan></text>
</g>
<text transform="matrix(1 0 0 1 309.7988 25.7983)"><tspan x="0" y="0" fill="#06A0B0" class="heavy" font-size="14">2004</tspan></text>
<text transform="matrix(1 0 0 1 309.7988 44.1152)"><tspan x="0" y="0" fill="#CC3440" class="heavy" font-size="14">2014</tspan></text>
</svg>
